Lila_HD/actions/scalable/paint-pattern.svg

<?xml version="1.0" encoding="UTF-8" standalone="no"?>
<svg
   xmlns:dc="http://purl.org/dc/elements/1.1/"
   xmlns:cc="http://creativecommons.org/ns#"
   xmlns:rdf="http://www.w3.org/1999/02/22-rdf-syntax-ns#"
   xmlns:svg="http://www.w3.org/2000/svg"
   xmlns="http://www.w3.org/2000/svg"
   xmlns:xlink="http://www.w3.org/1999/xlink"
   xmlns:sodipodi="http://sodipodi.sourceforge.net/DTD/sodipodi-0.dtd"
   xmlns:inkscape="http://www.inkscape.org/namespaces/inkscape"
   viewBox="0 0 96 96"
   version="1.1"
   id="svg8"
   sodipodi:docname="paint-pattern.svg"
   width="96"
   height="96"
   inkscape:version="0.92.1 r15371">
  <metadata
     id="metadata12">
    <rdf:RDF>
      <cc:Work
         rdf:about="">
        <dc:format>image/svg+xml</dc:format>
        <dc:type
           rdf:resource="http://purl.org/dc/dcmitype/StillImage" />
        <dc:title />
        <dc:date>2017</dc:date>
        <dc:creator>
          <cc:Agent>
            <dc:title>Cristian Pozzessere &quot;ilnanny&quot;</dc:title>
          </cc:Agent>
        </dc:creator>
        <dc:subject>
          <rdf:Bag>
            <rdf:li>Global language</rdf:li>
          </rdf:Bag>
        </dc:subject>
        <dc:description>Playing with Inkscape on Gnu/Linux O. S.</dc:description>
        <dc:contributor>
          <cc:Agent>
            <dc:title>In the night, alone like a dog.</dc:title>
          </cc:Agent>
        </dc:contributor>
      </cc:Work>
    </rdf:RDF>
  </metadata>
  <sodipodi:namedview
     pagecolor="#ffffff"
     bordercolor="#666666"
     borderopacity="1"
     objecttolerance="10"
     gridtolerance="10"
     guidetolerance="10"
     inkscape:pageopacity="0"
     inkscape:pageshadow="2"
     inkscape:window-width="1280"
     inkscape:window-height="971"
     id="namedview10"
     showgrid="false"
     inkscape:pagecheckerboard="true"
     inkscape:zoom="2.6074563"
     inkscape:cx="-88.099267"
     inkscape:cy="27.525423"
     inkscape:window-x="0"
     inkscape:window-y="27"
     inkscape:window-maximized="1"
     inkscape:current-layer="g135" />
  <defs
     id="defs3051">
    <style
       type="text/css"
       id="current-color-scheme">
      .ColorScheme-Text {
        color:#4d4d4d;
      }
      .ColorScheme-Highlight {
        color:#3daee9;
      }
      </style>
    <radialGradient
       r="42"
       fy="-27"
       fx="48"
       cy="-27"
       cx="48"
       gradientTransform="matrix(-1.1436508,0,0,-0.93335492,212.76191,-20.400582)"
       gradientUnits="userSpaceOnUse"
       id="radialGradient7430"
       xlink:href="#linearGradient4091-0-3-0-7"
       inkscape:collect="always" />
    <linearGradient
       id="linearGradient4091-0-3-0-7">
      <stop
         style="stop-color:#ffffff;stop-opacity:1;"
         offset="0"
         id="stop4093-3-6-4-2" />
      <stop
         id="stop4099-6-1-8-3"
         offset="0.80000001"
         style="stop-color:#ffffff;stop-opacity:1;" />
      <stop
         style="stop-color:#ffffff;stop-opacity:0;"
         offset="1"
         id="stop4095-1-0-7-9" />
    </linearGradient>
    <linearGradient
       inkscape:collect="always"
       xlink:href="#linearGradient4213-7"
       id="linearGradient7128"
       gradientUnits="userSpaceOnUse"
       x1="2.7713892"
       y1="-28.64156"
       x2="50.527882"
       y2="14.514202" />
    <linearGradient
       inkscape:collect="always"
       id="linearGradient4213-7">
      <stop
         style="stop-color:#ffffff;stop-opacity:1;"
         offset="0"
         id="stop4215-6" />
      <stop
         style="stop-color:#ffffff;stop-opacity:0;"
         offset="1"
         id="stop4217-5" />
    </linearGradient>
    <clipPath
       clipPathUnits="userSpaceOnUse"
       id="clipPath4156-4">
      <path
         style="opacity:0.6;fill:#ffffff;fill-opacity:1;stroke:none"
         d="m 27.046336,-55.695463 -14.21366,13.321486 h 0.06127 l 15.653407,21.770763 10.231384,-10.546177 C 38.561832,-32.30156 27.468089,-54.819245 27.046336,-55.695463 Z M 9.6468554,-39.382809 -5.2407289,-25.32124 15.987863,-7.8059573 26.372412,-18.382966 Z m 31.4906096,12.951445 -9.741259,9.713584 8.944804,12.4580526 7.780753,-7.5550056 z m -49.8397109,4.378822 -13.7541661,12.9822847 26.2830181,13.84571 0.06127,-0.0617 -0.122531,-0.0617 L 13.598503,-5.4007374 -8.7022409,-22.052595 Z m 38.0154159,7.400825 -9.802525,9.7752596 11.579232,9.5594001 7.62759,-7.40083 -8.669108,-11.0087257 z m 20.187073,5.6739697 -7.382526,7.2158 6.187844,8.54179 5.820249,-6.13651996 z m -32.195166,6.32154 -9.5574606,9.49772 13.6622686,7.1849703 7.933918,-7.6783603 z m 23.311629,2.37443004 -7.10683,6.93826996 8.362778,6.9074403 5.360756,-5.6739699 -0.06127,-0.0925 -0.0919,0.12335 -6.463539,-8.20258036 z m -8.730374,8.54178036 -7.505057,7.3391599 10.353916,5.45811 c 1.397496,-1.32103 5.67514,-6.12292 5.850882,-6.32154 z"
         id="path4158-0"
         inkscape:connector-curvature="0" />
    </clipPath>
    <radialGradient
       r="43.199203"
       fy="44.892841"
       fx="13.948145"
       cy="44.892841"
       cx="13.948145"
       gradientTransform="matrix(0.88832664,0,0,0.04919072,36.359492,-134.95831)"
       gradientUnits="userSpaceOnUse"
       id="radialGradient7464"
       xlink:href="#linearGradient4213-7"
       inkscape:collect="always" />
    <radialGradient
       r="43.199203"
       fy="44.892841"
       fx="13.948145"
       cy="44.892841"
       cx="13.948145"
       gradientTransform="matrix(0.97513377,0,0,0.04919072,78.148694,85.791696)"
       gradientUnits="userSpaceOnUse"
       id="radialGradient7462"
       xlink:href="#linearGradient4213-7"
       inkscape:collect="always" />
    <linearGradient
       y2="88.171875"
       x2="94.5"
       y1="88.171875"
       x1="1.5"
       gradientTransform="translate(44.249999,5.625)"
       gradientUnits="userSpaceOnUse"
       id="linearGradient7460"
       xlink:href="#linearGradient3832-0-6-1-1"
       inkscape:collect="always" />
    <linearGradient
       id="linearGradient3832-0-6-1-1">
      <stop
         style="stop-color:#000000;stop-opacity:1;"
         offset="0"
         id="stop3834-6-3-7-1" />
      <stop
         id="stop3872-2-4"
         offset="0.1"
         style="stop-color:#000000;stop-opacity:0.58823532;" />
      <stop
         style="stop-color:#000000;stop-opacity:0.58823532;"
         offset="0.89999998"
         id="stop3844-6-2-7-6" />
      <stop
         style="stop-color:#000000;stop-opacity:1;"
         offset="1"
         id="stop3836-5-0-2-9" />
    </linearGradient>
    <radialGradient
       r="42"
       fy="-27"
       fx="48"
       cy="-27"
       cx="48"
       gradientTransform="matrix(-1.1436508,0,0,-0.93335492,212.76191,-20.400582)"
       gradientUnits="userSpaceOnUse"
       id="radialGradient1071"
       xlink:href="#linearGradient4091-0-3-0-7"
       inkscape:collect="always" />
    <linearGradient
       y2="47.000011"
       x2="90"
       y1="47.000011"
       x1="6"
       gradientTransform="matrix(1.1071428,0,0,1.1071426,39.107143,1.5892862)"
       gradientUnits="userSpaceOnUse"
       id="linearGradient7426"
       xlink:href="#linearGradient6139-0"
       inkscape:collect="always" />
    <linearGradient
       id="linearGradient6139-0">
      <stop
         id="stop6141-2"
         offset="0"
         style="stop-color:#b2babc;stop-opacity:1" />
      <stop
         style="stop-color:#ffffff;stop-opacity:1"
         offset="0.25"
         id="stop6151-0" />
      <stop
         style="stop-color:#96a1a4;stop-opacity:1"
         offset="0.5"
         id="stop6147-1" />
      <stop
         id="stop6149-4"
         offset="0.75"
         style="stop-color:#f9fafb;stop-opacity:1" />
      <stop
         id="stop6143-4"
         offset="1"
         style="stop-color:#b2b9bc;stop-opacity:1" />
    </linearGradient>
    <radialGradient
       inkscape:collect="always"
       xlink:href="#linearGradient4091-0-3-0-7"
       id="radialGradient1102"
       gradientUnits="userSpaceOnUse"
       gradientTransform="matrix(-1.1436508,0,0,-0.93335492,212.76191,-20.400582)"
       cx="48"
       cy="-27"
       fx="48"
       fy="-27"
       r="42" />
  </defs>
  <g
     inkscape:label="Livello 1"
     id="layer1">
    <g
       transform="translate(-44.25,-5.625)"
       id="g1775">
      <path
         style="display:inline;opacity:0.15;fill:#000000;fill-opacity:1;fill-rule:nonzero;stroke:none;stroke-width:1"
         d="M 133.39285,5.625 H 51.107136 c -3.798847,0 -6.857135,3.0582851 -6.857135,6.85714 v 82.285718 c 0,3.798857 3.058288,6.857142 6.857135,6.857142 h 82.285714 c 3.79886,0 6.85715,-3.058285 6.85715,-6.857142 V 12.48214 c 0,-3.7988549 -3.05829,-6.85714 -6.85715,-6.85714 z"
         id="path3288"
         inkscape:connector-curvature="0" />
      <path
         inkscape:connector-curvature="0"
         id="path4085"
         d="M 132.74999,6.3749994 H 51.749992 c -3.739491,0 -6.749993,3.0104995 -6.749993,6.7499976 V 94.125 c 0,3.739501 3.010502,6.75 6.749993,6.75 h 80.999998 c 3.73951,0 6.75001,-3.010499 6.75001,-6.75 V 13.124997 c 0,-3.7394981 -3.0105,-6.7499976 -6.75001,-6.7499976 z"
         style="display:inline;opacity:0.15;fill:#000000;fill-opacity:1;fill-rule:nonzero;stroke:none;stroke-width:1" />
      <path
         style="display:inline;opacity:1;fill:url(#linearGradient7426);fill-opacity:1;fill-rule:nonzero;stroke:none;stroke-width:1"
         d="M 132.10714,7.1249998 H 52.392857 c -3.680143,0 -6.642857,2.9627132 -6.642857,6.6428552 v 79.71429 c 0,3.680142 2.962714,6.642855 6.642857,6.642855 h 79.714283 c 3.68014,0 6.64285,-2.962713 6.64285,-6.642855 v -79.71429 c 0,-3.680142 -2.96271,-6.6428552 -6.64285,-6.6428552 z"
         id="rect4251-1"
         inkscape:connector-curvature="0" />
      <path
         style="display:inline;opacity:0.96300001;fill:#e5e6e8;fill-opacity:1;fill-rule:nonzero;stroke:none;stroke-width:1.04441118"
         d="m 55.497974,11.907531 c -2.902492,0 -5.20665,2.317807 -5.20665,5.237502 v 21.702901 7.332504 40.426972 c 1.11492,1.706144 3.016677,2.847887 5.20665,2.847887 h 4.165331 66.645185 4.16531 c 2.19,0 4.09175,-1.141743 5.20667,-2.847887 V 46.180438 38.847934 17.145033 c 0,-2.919695 -2.30416,-5.237502 -5.20667,-5.237502 z"
         id="path1100"
         inkscape:connector-curvature="0"
         sodipodi:nodetypes="sscccsccscccsss" />
      <g
         id="g3272"
         transform="matrix(1.0379464,0,0,1.0379462,-71.607109,2.142858)">
        <path
           inkscape:connector-curvature="0"
           id="path4236-5"
           d="m 119.46667,4.8 c -3.5456,0 -6.4,2.8543996 -6.4,6.4 v 16 h 1.06666 v -16 c 0,-2.973117 2.36022,-5.3333333 5.33334,-5.3333333 h 76.8 c 2.97312,0 5.33333,2.3602163 5.33333,5.3333333 v 16 h 1.06667 v -16 c 0,-3.5456004 -2.8544,-6.4 -6.4,-6.4 z"
           style="display:inline;opacity:0.45;fill:url(#radialGradient1102);fill-opacity:1;fill-rule:nonzero;stroke:none;stroke-width:1.06666672" />
      </g>
      <path
         inkscape:connector-curvature="0"
         id="path4989"
         d="m 54.07508,10.354461 c -3.116622,0 -5.667965,2.53951 -5.667965,5.646004 v 69.277996 c 0,3.106495 2.551343,5.646005 5.667965,5.646005 h 76.79178 c 3.11663,0 5.66798,-2.53951 5.66798,-5.646005 V 16.000465 c 0,-3.106493 -2.55135,-5.646004 -5.66798,-5.646004 z m 0,2.319439 h 76.79178 c 1.88811,0 3.35202,1.480095 3.35202,3.326565 v 69.277996 c 0,1.846474 -1.46391,3.326565 -3.35202,3.326565 H 54.07508 c -1.888099,0 -3.352023,-1.480091 -3.352023,-3.326565 V 16.000465 c 0,-1.84647 1.463924,-3.326565 3.352023,-3.326565 z"
         style="color:#000000;font-style:normal;font-variant:normal;font-weight:normal;font-stretch:normal;font-size:medium;line-height:normal;font-family:Sans;-inkscape-font-specification:Sans;text-indent:0;text-align:start;text-decoration:none;text-decoration-line:none;letter-spacing:normal;word-spacing:normal;text-transform:none;writing-mode:lr-tb;direction:ltr;baseline-shift:baseline;text-anchor:start;display:inline;overflow:visible;visibility:visible;opacity:0.581;fill:#1f2224;fill-opacity:0.63265303;stroke:none;stroke-width:2.3755002;marker:none;enable-background:accumulate" />
      <path
         inkscape:connector-curvature="0"
         style="display:inline;opacity:0.65818182;fill:url(#linearGradient7460);fill-opacity:1;fill-rule:nonzero;stroke:none;stroke-width:1"
         d="m 45.749999,87.468751 v 6 c 0,3.680141 2.976107,6.656249 6.65625,6.656249 h 79.687501 c 3.68015,0 6.65625,-2.976108 6.65625,-6.656249 v -6 c 0,3.680142 -2.9761,6.656249 -6.65625,6.656249 H 52.406249 c -3.680143,0 -6.65625,-2.976107 -6.65625,-6.656249 z"
         id="path4118" />
      <rect
         style="opacity:0.55;fill:url(#radialGradient7462);fill-opacity:1;stroke:none;stroke-width:1"
         id="rect4131"
         width="84.250015"
         height="4.25"
         x="49.625"
         y="85.875008"
         rx="0"
         ry="4.25" />
      <rect
         ry="4.25"
         rx="0"
         y="-134.875"
         x="10.375"
         height="4.25"
         width="76.75"
         id="rect4141"
         style="opacity:0.55;fill:url(#radialGradient7464);fill-opacity:1;stroke:none;stroke-width:1"
         transform="rotate(90)" />
      <g
         id="g135"
         transform="matrix(1.0557214,0,0,1.0557214,32.040981,5.1360823)">
        <path
           inkscape:connector-curvature="0"
           id="path4"
           class="ColorScheme-Text"
           d="m 24.234823,13.414174 v 49.456366 4.945635 4.945637 h 65.59268 V 13.414174 Z"
           style="color:#4d4d4d;fill:#34495e;fill-opacity:1;stroke:none;stroke-width:5.19933939" />
        <path
           inkscape:connector-curvature="0"
           id="path6"
           d="M 35.166936,13.414174 24.234823,23.305448 35.166936,33.19672 46.09905,23.305448 Z M 46.09905,23.305448 57.031163,33.19672 67.963276,23.305448 57.031163,13.414174 Z m 21.864226,0 L 78.89539,33.19672 89.827503,23.305448 78.89539,13.414174 Z M 78.89539,33.19672 67.963276,43.087992 78.89539,52.979266 89.827503,43.087992 Z m 0,19.782546 L 67.963276,62.87054 78.89539,72.761812 89.827503,62.87054 Z M 67.963276,62.87054 57.031163,52.979266 46.09905,62.87054 57.031163,72.761812 Z m -21.864226,0 -10.932114,-9.891274 -10.932113,9.891274 10.932113,9.891272 z M 35.166936,52.979266 46.09905,43.087992 35.166936,33.19672 24.234823,43.087992 Z M 46.09905,43.087992 57.031163,52.979266 67.963276,43.087992 57.031163,33.19672 Z"
           style="fill:#ffffff;fill-opacity:1;stroke:none;stroke-width:5.19933939" />
      </g>
      <path
         sodipodi:nodetypes="ssccscss"
         style="opacity:0.122;fill:#ffffff;fill-opacity:1;stroke:none;stroke-width:1"
         d="m 54.022519,12.168313 c -1.993351,0 -3.604491,1.649341 -3.608802,3.684498 l -0.148218,69.961124 c 1.913687,2.521054 1.665284,2.410772 4.851514,2.679065 1.804216,-14.861055 36.499019,-73.336472 77.418277,-73.336472 0.48808,0 0.96327,0.01986 1.44921,0.02901 -0.30286,-1.718031 -1.75099,-3.017226 -3.52356,-3.017226 z"
         id="rect4190"
         inkscape:connector-curvature="0" />
      <rect
         transform="matrix(0.90930469,0,0,0.92837735,48.595107,40.519606)"
         style="opacity:0.36000001;fill:url(#linearGradient7128);fill-opacity:1;stroke:none"
         id="rect4146"
         width="92.1548"
         height="81.992943"
         x="2"
         y="-30"
         rx="3.9569874"
         ry="3.9569881"
         clip-path="url(#clipPath4156-4)" />
      <g
         transform="matrix(1.0379464,0,0,1.0379462,-71.607109,2.142858)"
         id="g1094">
        <path
           style="display:inline;opacity:0.45;fill:url(#radialGradient7430);fill-opacity:1;fill-rule:nonzero;stroke:none;stroke-width:1.06666672"
           d="m 119.46667,4.8 c -3.5456,0 -6.4,2.8543996 -6.4,6.4 v 16 h 1.06666 v -16 c 0,-2.973117 2.36022,-5.3333333 5.33334,-5.3333333 h 76.8 c 2.97312,0 5.33333,2.3602163 5.33333,5.3333333 v 16 h 1.06667 v -16 c 0,-3.5456004 -2.8544,-6.4 -6.4,-6.4 z"
           id="path1092"
           inkscape:connector-curvature="0" />
      </g>
    </g>
  </g>
</svg>

<?xml version="1.0" encoding="UTF-8"?>
<svg version="1.1" viewBox="0 0 96 96" xmlns="http://www.w3.org/2000/svg" xmlns:cc="http://creativecommons.org/ns#" xmlns:dc="http://purl.org/dc/elements/1.1/" xmlns:rdf="http://www.w3.org/1999/02/22-rdf-syntax-ns#" xmlns:xlink="http://www.w3.org/1999/xlink">
<metadata>
<rdf:RDF>
<cc:Work rdf:about="">
<dc:format>image/svg+xml</dc:format>
<dc:type rdf:resource="http://purl.org/dc/dcmitype/StillImage"/>
<dc:title/>
<dc:date>2017</dc:date>
<dc:creator>
<cc:Agent>
<dc:title>Cristian Pozzessere "ilnanny"</dc:title>
</cc:Agent>
</dc:creator>
<dc:subject>
<rdf:Bag>
<rdf:li>Global language</rdf:li>
</rdf:Bag>
</dc:subject>
<dc:description>Playing with Inkscape on Gnu/Linux O. S.</dc:description>
<dc:contributor>
<cc:Agent>
<dc:title>In the night, alone like a dog.</dc:title>
</cc:Agent>
</dc:contributor>
</cc:Work>
</rdf:RDF>
</metadata>
<defs>
<style type="text/css">.ColorScheme-Text {
        color:#4d4d4d;
      }
      .ColorScheme-Highlight {
        color:#3daee9;
      }</style>
<radialGradient id="radialGradient7430" cx="48" cy="-27" r="42" gradientTransform="matrix(-1.1437 0 0 -.93335 212.76 -20.401)" gradientUnits="userSpaceOnUse" xlink:href="#linearGradient4091-0-3-0-7"/>
<linearGradient id="linearGradient4091-0-3-0-7">
<stop stop-color="#fff" offset="0"/>
<stop stop-color="#fff" offset=".8"/>
<stop stop-color="#fff" stop-opacity="0" offset="1"/>
</linearGradient>
<linearGradient id="linearGradient7128" x1="2.7714" x2="50.528" y1="-28.642" y2="14.514" gradientUnits="userSpaceOnUse" xlink:href="#linearGradient4213-7"/>
<linearGradient id="linearGradient4213-7">
<stop stop-color="#fff" offset="0"/>
<stop stop-color="#fff" stop-opacity="0" offset="1"/>
</linearGradient>
<clipPath id="clipPath4156-4">
<path d="m27.046-55.695-14.214 13.321h0.06127l15.653 21.771 10.231-10.546c-0.2169-1.1522-11.311-23.67-11.732-24.546zm-17.399 16.313-14.888 14.062 21.229 17.515 10.385-10.577zm31.491 12.951-9.7413 9.7136 8.9448 12.458 7.7808-7.555zm-49.84 4.3788-13.754 12.982 26.283 13.846 0.06127-0.0617-0.12253-0.0617 9.8332-10.053-22.301-16.652zm38.015 7.4008-9.8025 9.7753 11.579 9.5594 7.6276-7.4008-8.6691-11.009zm20.187 5.674-7.3825 7.2158 6.1878 8.5418 5.8202-6.1365zm-32.195 6.3215-9.5575 9.4977 13.662 7.185 7.9339-7.6784zm23.312 2.3744-7.1068 6.9383 8.3628 6.9074 5.3608-5.674-0.06127-0.0925-0.0919 0.12335-6.4635-8.2026zm-8.7304 8.5418-7.5051 7.3392 10.354 5.4581c1.3975-1.321 5.6751-6.1229 5.8509-6.3215z" fill="#fff" opacity=".6"/>
</clipPath>
<radialGradient id="radialGradient7464" cx="13.948" cy="44.893" r="43.199" gradientTransform="matrix(.88833 0 0 .049191 36.359 -134.96)" gradientUnits="userSpaceOnUse" xlink:href="#linearGradient4213-7"/>
<radialGradient id="radialGradient7462" cx="13.948" cy="44.893" r="43.199" gradientTransform="matrix(.97513 0 0 .049191 78.149 85.792)" gradientUnits="userSpaceOnUse" xlink:href="#linearGradient4213-7"/>
<linearGradient id="linearGradient7460" x1="1.5" x2="94.5" y1="88.172" y2="88.172" gradientTransform="translate(44.25 5.625)" gradientUnits="userSpaceOnUse">
<stop offset="0"/>
<stop stop-opacity=".58824" offset=".1"/>
<stop stop-opacity=".58824" offset=".9"/>
<stop offset="1"/>
</linearGradient>
<linearGradient id="linearGradient7426" x1="6" x2="90" y1="47" y2="47" gradientTransform="matrix(1.1071 0 0 1.1071 39.107 1.5893)" gradientUnits="userSpaceOnUse">
<stop stop-color="#b2babc" offset="0"/>
<stop stop-color="#fff" offset=".25"/>
<stop stop-color="#96a1a4" offset=".5"/>
<stop stop-color="#f9fafb" offset=".75"/>
<stop stop-color="#b2b9bc" offset="1"/>
</linearGradient>
</defs>
<g transform="translate(-44.25,-5.625)">
<path d="m133.39 5.625h-82.286c-3.7988 0-6.8571 3.0583-6.8571 6.8571v82.286c0 3.7989 3.0583 6.8571 6.8571 6.8571h82.286c3.7989 0 6.8572-3.0583 6.8572-6.8571v-82.286c0-3.7989-3.0583-6.8571-6.8572-6.8571z" opacity=".15"/>
<path d="m132.75 6.375h-81c-3.7395 0-6.75 3.0105-6.75 6.75v81c0 3.7395 3.0105 6.75 6.75 6.75h81c3.7395 0 6.75-3.0105 6.75-6.75v-81c0-3.7395-3.0105-6.75-6.75-6.75z" opacity=".15"/>
<path d="m132.11 7.125h-79.714c-3.6801 0-6.6429 2.9627-6.6429 6.6429v79.714c0 3.6801 2.9627 6.6429 6.6429 6.6429h79.714c3.6801 0 6.6428-2.9627 6.6428-6.6429v-79.714c0-3.6801-2.9627-6.6429-6.6428-6.6429z" fill="url(#linearGradient7426)"/>
<path d="m55.498 11.908c-2.9025 0-5.2066 2.3178-5.2066 5.2375v69.462c1.1149 1.7061 3.0167 2.8479 5.2066 2.8479h74.976c2.19 0 4.0918-1.1417 5.2067-2.8479v-69.462c0-2.9197-2.3042-5.2375-5.2067-5.2375z" fill="#e5e6e8" opacity=".963"/>
<g transform="matrix(1.0379 0 0 1.0379 -71.607 2.1429)">
<path d="m119.47 4.8c-3.5456 0-6.4 2.8544-6.4 6.4v16h1.0667v-16c0-2.9731 2.3602-5.3333 5.3333-5.3333h76.8c2.9731 0 5.3333 2.3602 5.3333 5.3333v16h1.0667v-16c0-3.5456-2.8544-6.4-6.4-6.4z" fill="url(#radialGradient7430)" opacity=".45"/>
</g>
<path d="m54.075 10.354c-3.1166 0-5.668 2.5395-5.668 5.646v69.278c0 3.1065 2.5513 5.646 5.668 5.646h76.792c3.1166 0 5.668-2.5395 5.668-5.646v-69.278c0-3.1065-2.5514-5.646-5.668-5.646zm0 2.3194h76.792c1.8881 0 3.352 1.4801 3.352 3.3266v69.278c0 1.8465-1.4639 3.3266-3.352 3.3266h-76.792c-1.8881 0-3.352-1.4801-3.352-3.3266v-69.278c0-1.8465 1.4639-3.3266 3.352-3.3266z" color="#000000" fill="#1f2224" fill-opacity=".63265" opacity=".581" style="text-decoration-line:none;text-indent:0;text-transform:none"/>
<path d="m45.75 87.469v6c0 3.6801 2.9761 6.6562 6.6562 6.6562h79.688c3.6802 0 6.6562-2.9761 6.6562-6.6562v-6c0 3.6801-2.9761 6.6562-6.6562 6.6562h-79.688c-3.6801 0-6.6562-2.9761-6.6562-6.6562z" fill="url(#linearGradient7460)" opacity=".65818"/>
<rect x="49.625" y="85.875" width="84.25" height="4.25" rx="0" ry="4.25" fill="url(#radialGradient7462)" opacity=".55"/>
<rect transform="rotate(90)" x="10.375" y="-134.88" width="76.75" height="4.25" rx="0" ry="4.25" fill="url(#radialGradient7464)" opacity=".55"/>
<g transform="matrix(1.0557 0 0 1.0557 32.041 5.1361)">
<path class="ColorScheme-Text" d="m24.235 13.414v59.348h65.593v-59.348z" color="#4d4d4d" fill="#34495e"/>
<path d="m35.167 13.414-10.932 9.8913 10.932 9.8913 10.932-9.8913zm10.932 9.8913 10.932 9.8913 10.932-9.8913-10.932-9.8913zm21.864 0 10.932 9.8913 10.932-9.8913-10.932-9.8913zm10.932 9.8913-10.932 9.8913 10.932 9.8913 10.932-9.8913zm0 19.783-10.932 9.8913 10.932 9.8913 10.932-9.8913zm-10.932 9.8913-10.932-9.8913-10.932 9.8913 10.932 9.8913zm-21.864 0-10.932-9.8913-10.932 9.8913 10.932 9.8913zm-10.932-9.8913 10.932-9.8913-10.932-9.8913-10.932 9.8913zm10.932-9.8913 10.932 9.8913 10.932-9.8913-10.932-9.8913z" fill="#fff"/>
</g>
<path d="m54.023 12.168c-1.9934 0-3.6045 1.6493-3.6088 3.6845l-0.14822 69.961c1.9137 2.5211 1.6653 2.4108 4.8515 2.6791 1.8042-14.861 36.499-73.336 77.418-73.336 0.48808 0 0.96327 0.01986 1.4492 0.02901-0.30286-1.718-1.751-3.0172-3.5236-3.0172z" fill="#fff" opacity=".122"/>
<rect transform="matrix(.9093 0 0 .92838 48.595 40.52)" x="2" y="-30" width="92.155" height="81.993" rx="3.957" ry="3.957" clip-path="url(#clipPath4156-4)" fill="url(#linearGradient7128)" opacity=".36"/>
<g transform="matrix(1.0379 0 0 1.0379 -71.607 2.1429)">
<path d="m119.47 4.8c-3.5456 0-6.4 2.8544-6.4 6.4v16h1.0667v-16c0-2.9731 2.3602-5.3333 5.3333-5.3333h76.8c2.9731 0 5.3333 2.3602 5.3333 5.3333v16h1.0667v-16c0-3.5456-2.8544-6.4-6.4-6.4z" fill="url(#radialGradient7430)" opacity=".45"/>
</g>
</g>
</svg>
